!!!!SEGMENT: pl-kk--kk-i-38--013_lasso-orlando-di--ubi-est-abel-frater-tuus.krn
!!!cenid: 16xx:1263
!!!COM: Lasso, Orlando di
!!!COM-rismID:
!!!CDT: ~1532-1594/06/14
!!!CNT: French-Flemish
!!!OTL: Ubi est Abel frater tuus
!!!PDT:
!!!AGN: Sacred
!!!SMS-siglum: PL-Kk
!!!SMS-shelfmark: Kk.I.38
!!!SMS-shelfwork: 013 W
!!!SMS-variant:
!!!SMS-altvar:
!!!NIFC-rismSourceID: 1001154399
!!!NIFC-islandoraID: pl-kk:2701
!!!URL-pdf-islandora: https://repozytorium.nifc.pl/islandora/object/pl-kk%3A2701/datastream/PDF/view
!!!URL-scan: https://polish.musicsources.pl/pl/lokalizacje/galeria/rekopisy/5992 @EN{Scan on Polish Music Herritage in Open Access Website} @PL{Skany w portalu Dziedzictwo Muzyki Polskiej w otwartym dostępie}
!!!ONB-nifc: Lib. 2. Fol. 36. 2da parte (jeśli występuje), należy do utworu tytułowego
!!!AIN: 1 bass
!!!key:
**kern	**text
*Ibass	*
*I"Baſso Ripieno.	*
*I'B rip	*
*clefF4	*
*k[]	*
*a:	*
*M2/1	*
*met(C|)	*
=1-	=1-
!LO:TX:a:t=Lib. 2. Fol. 36.	!
!LO:TX:a:B:t=Pro Dominica\nTp(?) tuagesimae	!
!LO:TX:t=P:problem=przy kluczu Bn	!
00r	.
=2-	=2-
.	.
=3-	=3-
!LO:TX:t=P:problem=kreska pseudotaktowa	!
0r	.
=4-	=4-
1.E	V-
2C/	bi
=5-	=5-
!LO:TX:t=P:problem=kreska pseudotaktowa	!
1C	est
*2\right	*
2.A\	A-
4G\	.
=6-	=6-
4F\	.
4E\	.
2D\	.
!LO:TX:t=P:problem=kreska pseudotaktowa	!
1AA	-bel?
=7-	=7-
!LO:TX:a:t=1.	!
!LO:TX:t=P:problem=kreska pseudotaktowa	!
1r	.
1.BB	u-
=8-	=8-
.	.
2GG/	-bi
2GG/	est
1AA/	a-
=9-	=9-
.	.
!LO:TX:t=P:problem=kreska pseudotaktowa	!
2BB/	-bel?
1r	.
=10-	=10-
1.E	U-
2C/	-bi
=11-	=11-
*custos:D	*
!LO:TX:t=P:problem=kreska pseudotaktowa	!
1C	est
!LO:LB:g=original	!
0D	a-
=12-	=12-
.	.
!LO:TX:t=P:problem=kreska pseudotaktowa	!
1BB	-bel
=13-	=13-
0E	Fra-
=14-	=14-
!LO:TX:t=P:problem=kreska pseudotaktowa	!
1AA	-ter
2.D\	Tu-
4E\	.
=15-	=15-
1F	.
!LO:TX:t=P:problem=kreska pseudotaktowa	!
1BB,<	-us
=16-	=16-
1E	di-
!LO:TX:t=P:problem=kreska pseudotaktowa	!
1AA	-xit
=17-	=17-
2.AA/	Do-
4AA/	-mi-
2AA,</	-n(us)
2AA/	ad
=18-	=18-
0D	Ca-
=19-	=19-
0El;	-in:
=20||	=20||
1.A	Nes-
!LO:TX:t=P:problem=kreska pseudotaktowa	!
2F\	-ci-
=21-	=21-
4E\	-o.
4D\	.
4C\	.
4BB\	.
2AA,</	.
1A\	Nes-
=22-	=22-
.	.
!LO:TX:t=P:problem=kreska pseudotaktowa	!
2F\	-ci-
4E\	-o
4D\	.
4C/	.
4BB/	.
=23-	=23-
1AA	.
2D/	Do-
!LO:TX:t=P:problem=kreska pseudotaktowa	!
2BB/	-mi-
=24-	=24-
2AA,</	-ne,
1A	neſ-
!LO:TX:t=P:problem=kreska pseudotaktowa	!
2F\	-ci-
!LO:LB:g=original	!
=25-	=25-
4E\	-o
4D\	.
4C/	.
4BB/	.
2AA/	Do-
2.A\	.
=26-	=26-
.	.
4G\	.
4F\	.
4E\	.
2F\	.
!LO:TX:t=P:problem=kreska pseudotaktowa	!
2F\	-mi-
=27-	=27-
!LO:TX:t=P:problem=kreska pseudotaktowa	!
1C,<	-ne;
2r	.
1F\	num-
=28-	=28-
.	.
!LO:TX:t=P:problem=kreska pseudotaktowa	!
2F\	-quid
1BB	Cu-
=29-	=29-
!LO:TX:t=P:problem=kreska pseudotaktowa	!
1F,<	-ſtos
!LO:TX:t=P:problem=kreska pseudotaktowa	!
1E	Fra-
=30-	=30-
!LO:TX:t=P:problem=kreska pseudotaktowa	!
1G-X,<	-tris
1D	me-
=31-	=31-
!LO:TX:t=P:problem=kreska pseudotaktowa	!
1A	-i
1E,<	sum
=32-	=32-
1F	e-
!LO:TX:t=P:problem=kreska pseudotaktowa	!
0D	-go?
=33-	=33-
.	.
2r	.
2AA/	et
=34-	=34-
4D/	di-
4C/	.
4D/	.
4E/	.
!LO:TX:t=P:problem=kreska pseudotaktowa	!
1F	.
=35-	=35-
2.E\	-xit
8D/L	.
8C/J	.
!LO:TX:t=P:problem=kreska pseudotaktowa	!
1BB	.
=36-	=36-
1F	ad
2.E\	e-
4D/	.
=37-	=37-
1C	.
!LO:TX:t=P:problem=kreska pseudotaktowa	!
0BB	-um:
=38-	=38-
.	.
!LO:LB:g=original	!
2.G-X\	quid
4F\	.
=39-	=39-
2E\	.
2D#X\	fe-
1E	-ci-
=40-	=40-
!LO:TX:t=P:problem=kreska pseudotaktowa	!
1BB,<	-ſti
1r	.
=41-	=41-
2.G-X\	[[quid]]
4F\	.
2E\	.
2D#X\	fe-
=42-	=42-
1E	-ci-
!LO:TX:t=P:problem=kreska pseudotaktowa	!
1BB	-sti:
=43-	=43-
!LO:TX:t=P:problem=kreska pseudotaktowa	!
1r	.
1E	ec-
=44-	=44-
!LO:TX:t=P:problem=kreska pseudotaktowa	!
1E	-ce
1r	.
=45-	=45-
*	*ij
1E	ec-
!LO:TX:t=P:problem=kreska pseudotaktowa	!
1E	-ce
*	*Xij
=46-	=46-
1A	Vox
2.G-X\	san-
4G-\	-gvi-
=47-	=47-
2G-y,<\	-nis
1Dny	Fra-
!LO:TX:t=P:problem=kreska pseudotaktowa	!
2F\	-tris
=48-	=48-
2D\	Tu-
2F\	-i
1E	a-
=49-	=49-
!LO:TX:t=P:problem=kreska pseudotaktowa	!
1E	-bel
1A,<	Vox
=50-	=50-
2.G-X\	san-
4G-\	-gvi-
2G-\	-nis
1D\	Fra-
=51-	=51-
.	.
2F\	-tris
2D\	tu-
*custos:E	*
!LO:TX:t=P:problem=kreska pseudotaktowa	!
2F\	-i
!LO:PB:g=original	!
=52-	=52-
1E	a-
!LO:TX:t=P:problem=kreska pseudotaktowa	!
0E	-bel,
=53-	=53-
.	.
2r	.
1A\	cla-
=54-	=54-
.	.
2A,<\	-mat
1F	ad
=55-	=55-
!LO:TX:t=P:problem=kreska pseudotaktowa	!
0D	me
=56-	=56-
!LO:TX:a:t=1.	!
1r	.
*	*ij
1.G-X	cla-
=57-	=57-
.	.
2G-y\	-mat
1E	ad
=58-	=58-
!LO:TX:t=P:problem=kreska pseudotaktowa	!
1E	me
*	*Xij
2r	.
1A\	cla-
=59-	=59-
.	.
!LO:TX:t=P:problem=kreska pseudotaktowa	!
2A\	-mat
1F	ad
=60-	=60-
!LO:TX:t=P:problem=kreska pseudotaktowa	!
1E	me
2r	.
*	*ij
1A\	cla-
=61-	=61-
.	.
2A\	-mat
1F	ad
=62-	=62-
!LO:TX:t=P:problem=kreska pseudotaktowa	!
1D,<	me
*	*Xij
!LO:TX:t=P:problem=kreska pseudotaktowa	!
1AA	de
=63-	=63-
!LO:TX:t=P:problem=kreska pseudotaktowa	!
[1AA	ter-
1AA]	.
=64-	=64-
0EEl;	-ra.
==	==
*-	*-
!!!RDF**kern: < = below
!!!RDF**kern: l = terminal long
!!!ENC: Andrzej Kubiczek
!!!END: 2021-07-30
!!!ENC: Anastazja Marusiak
!!!END: 2021-07-01
